actions/16/go-next-context.svg

<svg xmlns="http://www.w3.org/2000/svg" style="fill-rule:evenodd;clip-rule:evenodd;stroke-linejoin:round;stroke-miterlimit:2" width="100%" height="100%" viewBox="0 0 16 16" xml:space="preserve">
 <defs>
  <style id="current-color-scheme" type="text/css">
   .ColorScheme-Text { color:#dfdfdf; } .ColorScheme-Highlight { color:#4285f4; } .ColorScheme-NeutralText { color:#ff9800; } .ColorScheme-PositiveText { color:#4caf50; } .ColorScheme-NegativeText { color:#f44336; }
  </style>
 </defs>
 <path style="fill:currentColor;fill-opacity:0.3" class="ColorScheme-Text" d="M0,2l0,12l10,0l6,-6l-6,-6l-10,0Z"/>
 <path style="fill:currentColor;" class="ColorScheme-Text" d="M4,4l1,0l0,1l-1,0c-1,0 -1,1 -1,1l0,1c0,0 0,0.578 -0.375,1c0.375,0.422 0.375,1 0.375,1l0,1c0,0 0,1 1,1l1,0l0,1l-1,0c-2,0 -2,-2 -2,-2l0,-1c0,-0.5 -0.5,-0.5 -0.5,-0.5l-0.5,0l0,-1l0.5,0c0,0 0.5,0 0.5,-0.5l0,-1c0,0 0,-2 2,-2Zm2,0l1,0c2,0 2,2 2,2l0,1c0,0.5 0.5,0.5 0.5,0.5l0.5,0l0,1l-0.5,0c0,0 -0.5,0 -0.5,0.5l0,1c0,0 0,2 -2,2l-1,0l0,-1l1,0c1,0 1,-1 1,-1l0,-1c0,0 0,-0.578 0.375,-1c-0.375,-0.422 -0.375,-1 -0.375,-1l0,-1c0,0 0,-1 -1,-1l-1,0l0,-1Z"/>
</svg>

<svg xmlns="http://www.w3.org/2000/svg" style="fill-rule:evenodd;clip-rule:evenodd;stroke-linejoin:round;stroke-miterlimit:2" viewBox="0 0 16 16" xml:space="preserve">
    <defs>
        <style id="current-color-scheme" type="text/css">
            .ColorScheme-Text{color:#dfdfdf}
        </style>
    </defs>
    <path style="fill:currentColor;fill-opacity:.3" class="ColorScheme-Text" d="M0 2v12h10l6-6-6-6H0Z"/>
    <path style="fill:currentColor" class="ColorScheme-Text" d="M4 4h1v1H4C3 5 3 6 3 6v1s0 .578-.375 1C3 8.422 3 9 3 9v1s0 1 1 1h1v1H4c-2 0-2-2-2-2V9c0-.5-.5-.5-.5-.5H1v-1h.5S2 7.5 2 7V6s0-2 2-2Zm2 0h1c2 0 2 2 2 2v1c0 .5.5.5.5.5h.5v1h-.5S9 8.5 9 9v1s0 2-2 2H6v-1h1c1 0 1-1 1-1V9s0-.578.375-1C8 7.578 8 7 8 7V6s0-1-1-1H6V4Z"/>
</svg>
